X:1
T:Title
%%score { 1 | ( 2 3 ) }
L:1/8
M:9/4
K:Ab
V:1 treble nm="Grand Piano"
V:2 bass 
V:3 bass 
V:1
 z6 z6[Q:1/4=124] [CE]2 [C=D]2 [CE]2 | [DF]6 [CE]6 [CA]2 [DG]2 [A,EA]2 | [DB]6 [DF]6 [FA]2 G2 F2 | %3
 G6 F6 [DF]2 [CE]2 [C=D]2 |[M:6/4] [CE]12 |[M:3/4] [CE]2 [C=D]2 [CE]2 | %6
[M:9/4] [DF]6 [CE]6 [CA]2 [DG]2 [A,EA]2 | [Ec]6 B6 B2 =A2 B2 | F6 A6 G2 F2 [B,G]2 | %9
[M:6/4] [A,CA]12 |] %10
V:2
 z6 z6 [A,,A,]4 [A,,A,]2 | [A,,A,]6 [A,,A,]6 E,2- [B,,E,]2 C,2 | [D,F,]6 [D,B,]6 z2 E2 [D,D]2 | %3
 [E,B,D]6 [E,G,D]6 [A,,A,]4 [A,,A,]2 |[M:6/4] [A,,A,]12 |[M:3/4] [A,,A,]4 [A,,A,]2 | %6
[M:9/4] z6 z6 .E,6 | [D,F,]6 [D,F,D]6 D2 C2 [D,F,D]2 | z6 z6 .B,6 |[M:6/4] A,,12 |] %10
V:3
 x18 | z6 z6 .A,,6 | z6 z6 .[D,D]6 | x18 |[M:6/4] x12 |[M:3/4] x6 | %6
[M:9/4] [A,,A,]6 [A,,A,]6 A,,2 B,,2 C,2 | z6 z6 .[D,F,]6 | [D,B,D]6 [D,F,D]6 [E,D]2- [E,A,D]2 E,2 | %9
[M:6/4] x12 |] %10

